assets/buttons/button-primary.svg

<svg height="44" viewBox="0 0 300 44" width="300" xmlns="http://www.w3.org/2000/svg"><g fill="none" fill-rule="evenodd"><path d="m7.6916556 0h284.6166884c2.674557 0 3.644415.27847683 4.622193.80139811s1.745144 1.290287 2.268065 2.26806478.801398 1.94763649.801398 4.62219271v28.6166888c0 2.6745562-.278477 3.6444149-.801398 4.6221927s-1.290287 1.7451435-2.268065 2.2680648-1.947636.8013981-4.622193.8013981h-284.6166884c-2.67455622 0-3.64441493-.2784768-4.62219271-.8013981s-1.7451435-1.290287-2.26806478-2.2680648-.80139811-1.9476365-.80139811-4.6221927v-28.6166888c0-2.67455622.27847683-3.64441493.80139811-4.62219271s1.290287-1.7451435 2.26806478-2.26806478 1.94763649-.80139811 4.62219271-.80139811z" fill="#000"/><g fill="#fff" fill-rule="nonzero" transform="translate(72.453857 13.586)"><path d="m14.112 15.414h-2.037l-.189-1.89c-.364.616-.938 1.1375-1.722 1.5645s-1.729.6405-2.835.6405c-2.03 0-3.759-.7035-5.187-2.1105s-2.142-3.2935-2.142-5.6595c0-1.568.3605-2.954 1.0815-4.158s1.6415-2.1035 2.7615-2.6985 2.338-.8925 3.654-.8925c1.722 0 3.1675.427 4.3365 1.281s1.9635 1.939 2.3835 3.255l-2.373.903c-.266-.896-.777-1.638-1.533-2.226s-1.694-.882-2.814-.882c-1.33 0-2.485.469-3.465 1.407s-1.47 2.275-1.47 4.011c0 1.722.476 3.0625 1.428 4.0215s2.114 1.4385 3.486 1.4385c1.344 0 2.3695-.3535 3.0765-1.0605s1.1025-1.4665 1.1865-2.2785h-4.914v-2.205h7.287z"/><path d="m19.047 9.177h5.019c-.028-.644-.2555-1.183-.6825-1.617s-1.0395-.651-1.8375-.651c-.728 0-1.316.2275-1.764.6825s-.693.9835-.735 1.5855zm5.292 2.667 2.058.651c-.294.938-.8435 1.7115-1.6485 2.3205s-1.7955.9135-2.9715.9135c-1.456 0-2.6915-.497-3.7065-1.491s-1.5225-2.324-1.5225-3.99c0-1.568.4935-2.856 1.4805-3.864s2.1525-1.512 3.4965-1.512c1.568 0 2.793.4795 3.675 1.4385s1.323 2.2505 1.323 3.8745c0 .434-.021.693-.063.777h-7.476c.028.77.3115 1.407.8505 1.911s1.1865.756 1.9425.756c1.316 0 2.17-.595 2.562-1.785z"/><path d="m32.34 2.058v3.129h2.121v2.163h-2.121v4.746c0 .448.105.7735.315.9765s.539.3045.987.3045c.28 0 .56-.028.84-.084v2.016c-.364.154-.861.231-1.491.231-.952 0-1.701-.2695-2.247-.8085s-.819-1.2845-.819-2.2365v-5.145h-1.89v-2.163h.525c.518 0 .91-.147 1.176-.441s.399-.679.399-1.155v-1.533z"/><path d="m40.404 2.058v3.129h2.121v2.163h-2.121v4.746c0 .448.105.7735.315.9765s.539.3045.987.3045c.28 0 .56-.028.84-.084v2.016c-.364.154-.861.231-1.491.231-.952 0-1.701-.2695-2.247-.8085s-.819-1.2845-.819-2.2365v-5.145h-1.89v-2.163h.525c.518 0 .91-.147 1.176-.441s.399-.679.399-1.155v-1.533z"/><path d="m47.838 15.414h-2.415v-10.227h2.415zm-2.331-12.705c-.308-.308-.462-.679-.462-1.113s.154-.8085.462-1.1235.679-.4725 1.113-.4725c.448 0 .826.154 1.134.462s.462.686.462 1.134c0 .434-.154.805-.462 1.113s-.686.462-1.134.462c-.434 0-.805-.154-1.113-.462z"/><path d="m53.823 9.513v5.901h-2.436v-10.227h2.373v1.365c.322-.56.7525-.9765 1.2915-1.2495s1.1165-.4095 1.7325-.4095c1.204 0 2.121.378 2.751 1.134s.945 1.729.945 2.919v6.468h-2.436v-6.048c0-.686-.168-1.2355-.504-1.6485s-.868-.6195-1.596-.6195c-.672 0-1.1935.2275-1.5645.6825s-.5565 1.0325-.5565 1.7325z"/><path d="m63.105 15.981 2.247-.588c.084.644.3605 1.1725.8295 1.5855s1.0465.6195 1.7325.6195c1.932 0 2.898-1.022 2.898-3.066v-1.071c-.238.434-.616.791-1.134 1.071s-1.127.42-1.827.42c-1.372 0-2.5025-.469-3.3915-1.407s-1.3335-2.128-1.3335-3.57c0-1.386.441-2.562 1.323-3.528s2.016-1.449 3.402-1.449c1.498 0 2.506.497 3.024 1.491v-1.302h2.352v9.261c0 1.512-.427 2.7685-1.281 3.7695s-2.177 1.5015-3.969 1.5015c-1.316 0-2.422-.357-3.318-1.071s-1.414-1.603-1.554-2.667zm5.145-3.108c.784 0 1.4175-.2625 1.9005-.7875s.7245-1.2285.7245-2.1105c0-.868-.245-1.5645-.735-2.0895s-1.12-.7875-1.89-.7875c-.784 0-1.4245.2625-1.9215.7875s-.7455 1.2215-.7455 2.0895c0 .882.245 1.5855.735 2.1105s1.134.7875 1.932.7875z"/><path d="m92.211 4.011-2.268.714c-.098-.574-.385-1.099-.861-1.575s-1.162-.714-2.058-.714c-.742 0-1.3545.21-1.8375.63s-.7245.924-.7245 1.512c0 1.022.581 1.659 1.743 1.911l2.142.441c1.288.252 2.282.763 2.982 1.533s1.05 1.687 1.05 2.751c0 1.232-.4725 2.2925-1.4175 3.1815s-2.2295 1.3335-3.8535 1.3335c-1.75 0-3.115-.4585-4.095-1.3755s-1.533-1.9845-1.659-3.2025l2.352-.672c.084.84.42 1.547 1.008 2.121s1.386.861 2.394.861c.868 0 1.5365-.1925 2.0055-.5775s.7035-.8785.7035-1.4805c0-.49-.175-.9135-.525-1.2705s-.84-.6055-1.47-.7455l-2.1-.441c-1.162-.238-2.0825-.721-2.7615-1.449s-1.0185-1.638-1.0185-2.73c0-1.246.497-2.317 1.491-3.213s2.184-1.344 3.57-1.344c1.582 0 2.793.3815 3.633 1.1445s1.365 1.6485 1.575 2.6565z"/><path d="m98.238 2.058v3.129h2.121v2.163h-2.121v4.746c0 .448.105.7735.315.9765s.539.3045.987.3045c.28 0 .56-.028.84-.084v2.016c-.364.154-.861.231-1.491.231-.952 0-1.701-.2695-2.247-.8085s-.819-1.2845-.819-2.2365v-5.145h-1.89v-2.163h.525c.518 0 .91-.147 1.176-.441s.399-.679.399-1.155v-1.533z"/><path d="m102.648 12.642c0-.868.2835-1.5645.8505-2.0895s1.3125-.8575 2.2365-.9975l2.625-.399c.504-.07.756-.315.756-.735 0-.462-.161-.8365-.483-1.1235s-.805-.4305-1.449-.4305c-.616 0-1.106.1715-1.47.5145s-.574.7875-.63 1.3335l-2.226-.504c.098-.924.539-1.7115 1.323-2.3625s1.778-.9765 2.982-.9765c1.484 0 2.5795.357 3.2865 1.071s1.0605 1.631 1.0605 2.751v5.082c0 .672.042 1.218.126 1.638h-2.268c-.07-.21-.105-.644-.105-1.302-.672 1.078-1.722 1.617-3.15 1.617-1.036 0-1.8725-.3045-2.5095-.9135s-.9555-1.3335-.9555-2.1735zm3.927 1.176c.756 0 1.3685-.2065 1.8375-.6195s.7035-1.0885.7035-2.0265v-.462l-2.667.399c-.91.154-1.365.616-1.365 1.386 0 .364.133.6755.399.9345s.63.3885 1.092.3885z"/><path d="m120.834 5.124v2.478c-.28-.042-.546-.063-.798-.063-1.834 0-2.751 1.001-2.751 3.003v4.872h-2.436v-10.227h2.373v1.638c.238-.546.623-.9765 1.155-1.2915s1.134-.4725 1.806-.4725c.224 0 .441.021.651.063z"/><path d="m126.798 2.058v3.129h2.121v2.163h-2.121v4.746c0 .448.105.7735.315.9765s.539.3045.987.3045c.28 0 .56-.028.84-.084v2.016c-.364.154-.861.231-1.491.231-.952 0-1.701-.2695-2.247-.8085s-.819-1.2845-.819-2.2365v-5.145h-1.89v-2.163h.525c.518 0 .91-.147 1.176-.441s.399-.679.399-1.155v-1.533z"/><path d="m133.413 9.177h5.019c-.028-.644-.2555-1.183-.6825-1.617s-1.0395-.651-1.8375-.651c-.728 0-1.316.2275-1.764.6825s-.693.9835-.735 1.5855zm5.292 2.667 2.058.651c-.294.938-.8435 1.7115-1.6485 2.3205s-1.7955.9135-2.9715.9135c-1.456 0-2.6915-.497-3.7065-1.491s-1.5225-2.324-1.5225-3.99c0-1.568.4935-2.856 1.4805-3.864s2.1525-1.512 3.4965-1.512c1.568 0 2.793.4795 3.675 1.4385s1.323 2.2505 1.323 3.8745c0 .434-.021.693-.063.777h-7.476c.028.77.3115 1.407.8505 1.911s1.1865.756 1.9425.756c1.316 0 2.17-.595 2.562-1.785z"/><path d="m145.257 10.269c0 .98.252 1.7675.756 2.3625s1.169.8925 1.995.8925c.798 0 1.449-.301 1.953-.903s.756-1.393.756-2.373c0-.966-.245-1.736-.735-2.31s-1.141-.861-1.953-.861-1.477.2905-1.995.8715-.777 1.3545-.777 2.3205zm7.812-10.059v13.335c0 .686.035 1.309.105 1.869h-2.331c-.07-.392-.105-.833-.105-1.323-.252.462-.644.84-1.176 1.134s-1.141.441-1.827.441c-1.456 0-2.639-.511-3.549-1.533s-1.365-2.31-1.365-3.864c0-1.498.4585-2.765 1.3755-3.801s2.0825-1.554 3.4965-1.554c.812 0 1.4665.147 1.9635.441s.8435.637 1.0395 1.029v-6.174z"/></g></g></svg>

<?xml version="1.0" encoding="UTF-8"?>
<svg width="300px" height="44px" viewBox="0 0 300 44" version="1.1" xmlns="http://www.w3.org/2000/svg" xmlns:xlink="http://www.w3.org/1999/xlink">
    <title>button-primary</title>
    <g id="Buttons" stroke="none" stroke-width="1" fill="none" fill-rule="evenodd">
        <g id="button-primary">
            <g id="Button-Shape" fill="#000000">
                <path d="M7.6916556,-3.10752092e-16 L292.308344,3.10752092e-16 C294.982901,-1.80555915e-16 295.952759,0.278476833 296.930537,0.801398111 C297.908315,1.32431939 298.675681,2.09168511 299.198602,3.06946289 C299.721523,4.04724067 300,5.01709938 300,7.6916556 L300,36.3083444 C300,38.9829006 299.721523,39.9527593 299.198602,40.9305371 C298.675681,41.9083149 297.908315,42.6756806 296.930537,43.1986019 C295.952759,43.7215232 294.982901,44 292.308344,44 L7.6916556,44 C5.01709938,44 4.04724067,43.7215232 3.06946289,43.1986019 C2.09168511,42.6756806 1.32431939,41.9083149 0.801398111,40.9305371 C0.278476833,39.9527593 1.70106086e-15,38.9829006 -2.92767048e-15,36.3083444 L2.07168062e-16,7.6916556 C-1.2037061e-16,5.01709938 0.278476833,4.04724067 0.801398111,3.06946289 C1.32431939,2.09168511 2.09168511,1.32431939 3.06946289,0.801398111 C4.04724067,0.278476833 5.01709938,1.80555915e-16 7.6916556,-3.10752092e-16 Z" id="Appearance"></path>
            </g>
            <g id="Label" transform="translate(71.555357, 9.000000)" fill="#FFFFFF" fill-rule="nonzero">
                <g id="Group" transform="translate(0.000000, 0.000000)">
                    <g id="Outlines" transform="translate(0.898500, 4.586000)">
                        <path d="M14.112,15.414 L12.075,15.414 L11.886,13.524 C11.522,14.14 10.948,14.6615 10.164,15.0885 C9.38,15.5155 8.435,15.729 7.329,15.729 C5.299,15.729 3.57,15.0255 2.142,13.6185 C0.714,12.2115 0,10.325 0,7.959 C0,6.391 0.3605,5.005 1.0815,3.801 C1.8025,2.597 2.723,1.6975 3.843,1.1025 C4.963,0.5075 6.181,0.21 7.497,0.21 C9.219,0.21 10.6645,0.637 11.8335,1.491 C13.0025,2.345 13.797,3.43 14.217,4.746 L11.844,5.649 C11.578,4.753 11.067,4.011 10.311,3.423 C9.555,2.835 8.617,2.541 7.497,2.541 C6.167,2.541 5.012,3.01 4.032,3.948 C3.052,4.886 2.562,6.223 2.562,7.959 C2.562,9.681 3.038,11.0215 3.99,11.9805 C4.942,12.9395 6.104,13.419 7.476,13.419 C8.82,13.419 9.8455,13.0655 10.5525,12.3585 C11.2595,11.6515 11.655,10.892 11.739,10.08 L6.825,10.08 L6.825,7.875 L14.112,7.875 L14.112,15.414 Z" id="Path"></path>
                        <path d="M19.047,9.177 L24.066,9.177 C24.038,8.533 23.8105,7.994 23.3835,7.56 C22.9565,7.126 22.344,6.909 21.546,6.909 C20.818,6.909 20.23,7.1365 19.782,7.5915 C19.334,8.0465 19.089,8.575 19.047,9.177 Z M24.339,11.844 L26.397,12.495 C26.103,13.433 25.5535,14.2065 24.7485,14.8155 C23.9435,15.4245 22.953,15.729 21.777,15.729 C20.321,15.729 19.0855,15.232 18.0705,14.238 C17.0555,13.244 16.548,11.914 16.548,10.248 C16.548,8.68 17.0415,7.392 18.0285,6.384 C19.0155,5.376 20.181,4.872 21.525,4.872 C23.093,4.872 24.318,5.3515 25.2,6.3105 C26.082,7.2695 26.523,8.561 26.523,10.185 C26.523,10.619 26.502,10.878 26.46,10.962 L18.984,10.962 C19.012,11.732 19.2955,12.369 19.8345,12.873 C20.3735,13.377 21.021,13.629 21.777,13.629 C23.093,13.629 23.947,13.034 24.339,11.844 Z" id="Shape"></path>
                        <path d="M32.34,2.058 L32.34,5.187 L34.461,5.187 L34.461,7.35 L32.34,7.35 L32.34,12.096 C32.34,12.544 32.445,12.8695 32.655,13.0725 C32.865,13.2755 33.194,13.377 33.642,13.377 C33.922,13.377 34.202,13.349 34.482,13.293 L34.482,15.309 C34.118,15.463 33.621,15.54 32.991,15.54 C32.039,15.54 31.29,15.2705 30.744,14.7315 C30.198,14.1925 29.925,13.447 29.925,12.495 L29.925,7.35 L28.035,7.35 L28.035,5.187 L28.56,5.187 C29.078,5.187 29.47,5.04 29.736,4.746 C30.002,4.452 30.135,4.067 30.135,3.591 L30.135,2.058 L32.34,2.058 Z" id="Path"></path>
                        <path d="M40.404,2.058 L40.404,5.187 L42.525,5.187 L42.525,7.35 L40.404,7.35 L40.404,12.096 C40.404,12.544 40.509,12.8695 40.719,13.0725 C40.929,13.2755 41.258,13.377 41.706,13.377 C41.986,13.377 42.266,13.349 42.546,13.293 L42.546,15.309 C42.182,15.463 41.685,15.54 41.055,15.54 C40.103,15.54 39.354,15.2705 38.808,14.7315 C38.262,14.1925 37.989,13.447 37.989,12.495 L37.989,7.35 L36.099,7.35 L36.099,5.187 L36.624,5.187 C37.142,5.187 37.534,5.04 37.8,4.746 C38.066,4.452 38.199,4.067 38.199,3.591 L38.199,2.058 L40.404,2.058 Z" id="Path"></path>
                        <path d="M47.838,15.414 L45.423,15.414 L45.423,5.187 L47.838,5.187 L47.838,15.414 Z M45.507,2.709 C45.199,2.401 45.045,2.03 45.045,1.596 C45.045,1.162 45.199,0.7875 45.507,0.4725 C45.815,0.1575 46.186,0 46.62,0 C47.068,0 47.446,0.154 47.754,0.462 C48.062,0.77 48.216,1.148 48.216,1.596 C48.216,2.03 48.062,2.401 47.754,2.709 C47.446,3.017 47.068,3.171 46.62,3.171 C46.186,3.171 45.815,3.017 45.507,2.709 Z" id="Shape"></path>
                        <path d="M53.823,9.513 L53.823,15.414 L51.387,15.414 L51.387,5.187 L53.76,5.187 L53.76,6.552 C54.082,5.992 54.5125,5.5755 55.0515,5.3025 C55.5905,5.0295 56.168,4.893 56.784,4.893 C57.988,4.893 58.905,5.271 59.535,6.027 C60.165,6.783 60.48,7.756 60.48,8.946 L60.48,15.414 L58.044,15.414 L58.044,9.366 C58.044,8.68 57.876,8.1305 57.54,7.7175 C57.204,7.3045 56.672,7.098 55.944,7.098 C55.272,7.098 54.7505,7.3255 54.3795,7.7805 C54.0085,8.2355 53.823,8.813 53.823,9.513 Z" id="Path"></path>
                        <path d="M63.105,15.981 L65.352,15.393 C65.436,16.037 65.7125,16.5655 66.1815,16.9785 C66.6505,17.3915 67.228,17.598 67.914,17.598 C69.846,17.598 70.812,16.576 70.812,14.532 L70.812,13.461 C70.574,13.895 70.196,14.252 69.678,14.532 C69.16,14.812 68.551,14.952 67.851,14.952 C66.479,14.952 65.3485,14.483 64.4595,13.545 C63.5705,12.607 63.126,11.417 63.126,9.975 C63.126,8.589 63.567,7.413 64.449,6.447 C65.331,5.481 66.465,4.998 67.851,4.998 C69.349,4.998 70.357,5.495 70.875,6.489 L70.875,5.187 L73.227,5.187 L73.227,14.448 C73.227,15.96 72.8,17.2165 71.946,18.2175 C71.092,19.2185 69.769,19.719 67.977,19.719 C66.661,19.719 65.555,19.362 64.659,18.648 C63.763,17.934 63.245,17.045 63.105,15.981 Z M68.25,12.873 C69.034,12.873 69.6675,12.6105 70.1505,12.0855 C70.6335,11.5605 70.875,10.857 70.875,9.975 C70.875,9.107 70.63,8.4105 70.14,7.8855 C69.65,7.3605 69.02,7.098 68.25,7.098 C67.466,7.098 66.8255,7.3605 66.3285,7.8855 C65.8315,8.4105 65.583,9.107 65.583,9.975 C65.583,10.857 65.828,11.5605 66.318,12.0855 C66.808,12.6105 67.452,12.873 68.25,12.873 Z" id="Shape"></path>
                        <path d="M92.211,4.011 L89.943,4.725 C89.845,4.151 89.558,3.626 89.082,3.15 C88.606,2.674 87.92,2.436 87.024,2.436 C86.282,2.436 85.6695,2.646 85.1865,3.066 C84.7035,3.486 84.462,3.99 84.462,4.578 C84.462,5.6 85.043,6.237 86.205,6.489 L88.347,6.93 C89.635,7.182 90.629,7.693 91.329,8.463 C92.029,9.233 92.379,10.15 92.379,11.214 C92.379,12.446 91.9065,13.5065 90.9615,14.3955 C90.0165,15.2845 88.732,15.729 87.108,15.729 C85.358,15.729 83.993,15.2705 83.013,14.3535 C82.033,13.4365 81.48,12.369 81.354,11.151 L83.706,10.479 C83.79,11.319 84.126,12.026 84.714,12.6 C85.302,13.174 86.1,13.461 87.108,13.461 C87.976,13.461 88.6445,13.2685 89.1135,12.8835 C89.5825,12.4985 89.817,12.005 89.817,11.403 C89.817,10.913 89.642,10.4895 89.292,10.1325 C88.942,9.7755 88.452,9.527 87.822,9.387 L85.722,8.946 C84.56,8.708 83.6395,8.225 82.9605,7.497 C82.2815,6.769 81.942,5.859 81.942,4.767 C81.942,3.521 82.439,2.45 83.433,1.554 C84.427,0.658 85.617,0.21 87.003,0.21 C88.585,0.21 89.796,0.5915 90.636,1.3545 C91.476,2.1175 92.001,3.003 92.211,4.011 Z" id="Path"></path>
                        <path d="M98.238,2.058 L98.238,5.187 L100.359,5.187 L100.359,7.35 L98.238,7.35 L98.238,12.096 C98.238,12.544 98.343,12.8695 98.553,13.0725 C98.763,13.2755 99.092,13.377 99.54,13.377 C99.82,13.377 100.1,13.349 100.38,13.293 L100.38,15.309 C100.016,15.463 99.519,15.54 98.889,15.54 C97.937,15.54 97.188,15.2705 96.642,14.7315 C96.096,14.1925 95.823,13.447 95.823,12.495 L95.823,7.35 L93.933,7.35 L93.933,5.187 L94.458,5.187 C94.976,5.187 95.368,5.04 95.634,4.746 C95.9,4.452 96.033,4.067 96.033,3.591 L96.033,2.058 L98.238,2.058 Z" id="Path"></path>
                        <path d="M102.648,12.642 C102.648,11.774 102.9315,11.0775 103.4985,10.5525 C104.0655,10.0275 104.811,9.695 105.735,9.555 L108.36,9.156 C108.864,9.086 109.116,8.841 109.116,8.421 C109.116,7.959 108.955,7.5845 108.633,7.2975 C108.311,7.0105 107.828,6.867 107.184,6.867 C106.568,6.867 106.078,7.0385 105.714,7.3815 C105.35,7.7245 105.14,8.169 105.084,8.715 L102.858,8.211 C102.956,7.287 103.397,6.4995 104.181,5.8485 C104.965,5.1975 105.959,4.872 107.163,4.872 C108.647,4.872 109.7425,5.229 110.4495,5.943 C111.1565,6.657 111.51,7.574 111.51,8.694 L111.51,13.776 C111.51,14.448 111.552,14.994 111.636,15.414 L109.368,15.414 C109.298,15.204 109.263,14.77 109.263,14.112 C108.591,15.19 107.541,15.729 106.113,15.729 C105.077,15.729 104.2405,15.4245 103.6035,14.8155 C102.9665,14.2065 102.648,13.482 102.648,12.642 Z M106.575,13.818 C107.331,13.818 107.9435,13.6115 108.4125,13.1985 C108.8815,12.7855 109.116,12.11 109.116,11.172 L109.116,10.71 L106.449,11.109 C105.539,11.263 105.084,11.725 105.084,12.495 C105.084,12.859 105.217,13.1705 105.483,13.4295 C105.749,13.6885 106.113,13.818 106.575,13.818 Z" id="Shape"></path>
                        <path d="M120.834,5.124 L120.834,7.602 C120.554,7.56 120.288,7.539 120.036,7.539 C118.202,7.539 117.285,8.54 117.285,10.542 L117.285,15.414 L114.849,15.414 L114.849,5.187 L117.222,5.187 L117.222,6.825 C117.46,6.279 117.845,5.8485 118.377,5.5335 C118.909,5.2185 119.511,5.061 120.183,5.061 C120.407,5.061 120.624,5.082 120.834,5.124 Z" id="Path"></path>
                        <path d="M126.798,2.058 L126.798,5.187 L128.919,5.187 L128.919,7.35 L126.798,7.35 L126.798,12.096 C126.798,12.544 126.903,12.8695 127.113,13.0725 C127.323,13.2755 127.652,13.377 128.1,13.377 C128.38,13.377 128.66,13.349 128.94,13.293 L128.94,15.309 C128.576,15.463 128.079,15.54 127.449,15.54 C126.497,15.54 125.748,15.2705 125.202,14.7315 C124.656,14.1925 124.383,13.447 124.383,12.495 L124.383,7.35 L122.493,7.35 L122.493,5.187 L123.018,5.187 C123.536,5.187 123.928,5.04 124.194,4.746 C124.46,4.452 124.593,4.067 124.593,3.591 L124.593,2.058 L126.798,2.058 Z" id="Path"></path>
                        <path d="M133.413,9.177 L138.432,9.177 C138.404,8.533 138.1765,7.994 137.7495,7.56 C137.3225,7.126 136.71,6.909 135.912,6.909 C135.184,6.909 134.596,7.1365 134.148,7.5915 C133.7,8.0465 133.455,8.575 133.413,9.177 Z M138.705,11.844 L140.763,12.495 C140.469,13.433 139.9195,14.2065 139.1145,14.8155 C138.3095,15.4245 137.319,15.729 136.143,15.729 C134.687,15.729 133.4515,15.232 132.4365,14.238 C131.4215,13.244 130.914,11.914 130.914,10.248 C130.914,8.68 131.4075,7.392 132.3945,6.384 C133.3815,5.376 134.547,4.872 135.891,4.872 C137.459,4.872 138.684,5.3515 139.566,6.3105 C140.448,7.2695 140.889,8.561 140.889,10.185 C140.889,10.619 140.868,10.878 140.826,10.962 L133.35,10.962 C133.378,11.732 133.6615,12.369 134.2005,12.873 C134.7395,13.377 135.387,13.629 136.143,13.629 C137.459,13.629 138.313,13.034 138.705,11.844 Z" id="Shape"></path>
                        <path d="M145.257,10.269 C145.257,11.249 145.509,12.0365 146.013,12.6315 C146.517,13.2265 147.182,13.524 148.008,13.524 C148.806,13.524 149.457,13.223 149.961,12.621 C150.465,12.019 150.717,11.228 150.717,10.248 C150.717,9.282 150.472,8.512 149.982,7.938 C149.492,7.364 148.841,7.077 148.029,7.077 C147.217,7.077 146.552,7.3675 146.034,7.9485 C145.516,8.5295 145.257,9.303 145.257,10.269 Z M153.069,0.21 L153.069,13.545 C153.069,14.231 153.104,14.854 153.174,15.414 L150.843,15.414 C150.773,15.022 150.738,14.581 150.738,14.091 C150.486,14.553 150.094,14.931 149.562,15.225 C149.03,15.519 148.421,15.666 147.735,15.666 C146.279,15.666 145.096,15.155 144.186,14.133 C143.276,13.111 142.821,11.823 142.821,10.269 C142.821,8.771 143.2795,7.504 144.1965,6.468 C145.1135,5.432 146.279,4.914 147.693,4.914 C148.505,4.914 149.1595,5.061 149.6565,5.355 C150.1535,5.649 150.5,5.992 150.696,6.384 L150.696,0.21 L153.069,0.21 Z" id="Shape"></path>
                    </g>
                </g>
            </g>
        </g>
    </g>
</svg>
